!!!OTL: MEIN TRAUTEL HAELT MICH FUER UND FUER
!!!ARE: Europa, Mitteleuropa, Deutschland
!!!SCT: B0699
!!!YEM: Copyright 1995, estate of Helmut Schaffrath.
**kern
*ICvox
*Ivox
*M2/4
*k[f#]
*G:
{16g
16b
=1
8dd
8dd
8cc
8cc
=2
8b
8b
8a}
{8a
=3
8g
8g
8a
8a
=4
4b
8g}
{16g
16b
=5
8dd
8dd
8cc
8cc
=6
8b
8b
8a}
{8a
=7
8g
8g
8a
8a
=8
4b
8g}
{8b
=9
8a
8dd
8cc
8b
=10
8a
8ee
8dd}
{8cc
=11
8b
8cc#
8dd
8ee
=12
4ff#
8dd}
{8dd
=13
8gg
8gg
8ff#
8ee
=14
8dd
8dd
8cc}
{8b
=15
8a
8ee
8dd
8f#
=16
4g
8d}
==
!!!AGN: Scherz -, Spott - Lied
!!!ONB: ESAC (Essen Associative Code) Database: BOEHME
!!!AMT: simple duple
!!!AIN: vox
!!!EED: Helmut Schaffrath
!!!EEV: 1.0
*-
